flaticon/security/antivirus-1.svg

<svg xmlns="http://www.w3.org/2000/svg" width="32" height="32" viewBox="0 0 24 24">
    <path d="M 20.800781 3.195312 C 14.960938 3.195312 12.34375 0.179688 12.308594 0.136719 C 12.15625 -0.046875 11.84375 -0.046875 11.691406 0.136719 C 11.667969 0.167969 9.078125 3.191406 3.199219 3.191406 C 2.976562 3.191406 2.796875 3.371094 2.796875 3.59375 L 2.796875 11.230469 C 2.796875 15.402344 4.671875 19.371094 7.816406 21.839844 C 9.085938 22.835938 10.453125 23.558594 11.886719 23.984375 C 11.921875 23.992188 11.960938 24 12 24 C 12.039062 24 12.078125 23.992188 12.113281 23.984375 C 13.546875 23.558594 14.914062 22.835938 16.183594 21.839844 C 19.328125 19.371094 21.203125 15.402344 21.203125 11.230469 L 21.203125 3.59375 C 21.203125 3.371094 21.023438 3.195312 20.800781 3.195312 Z M 20.402344 11.230469 C 20.402344 15.160156 18.640625 18.894531 15.6875 21.210938 C 14.535156 22.121094 13.292969 22.78125 12 23.183594 C 10.707031 22.78125 9.464844 22.121094 8.3125 21.210938 C 5.359375 18.894531 3.597656 15.160156 3.597656 11.230469 L 3.597656 3.988281 C 8.496094 3.878906 11.144531 1.789062 12 0.96875 C 12.855469 1.789062 15.503906 3.878906 20.402344 3.988281 Z M 20.402344 11.230469"/>
    <path d="M 11.773438 3.195312 C 10.570312 4.015625 8.507812 5.070312 5.546875 5.449219 C 5.347656 5.476562 5.199219 5.644531 5.199219 5.847656 L 5.199219 11.230469 C 5.199219 14.675781 6.730469 17.9375 9.300781 19.953125 C 10.109375 20.589844 10.96875 21.089844 11.855469 21.4375 C 11.902344 21.453125 11.949219 21.464844 12 21.464844 C 12.050781 21.464844 12.097656 21.453125 12.144531 21.4375 C 13.03125 21.089844 13.890625 20.589844 14.699219 19.953125 C 17.269531 17.9375 18.800781 14.675781 18.800781 11.230469 L 18.800781 5.847656 C 18.800781 5.644531 18.652344 5.476562 18.453125 5.449219 C 15.492188 5.070312 13.429688 4.015625 12.226562 3.195312 C 12.089844 3.101562 11.910156 3.101562 11.773438 3.195312 Z M 18 6.195312 L 18 11.230469 C 18 14.429688 16.582031 17.457031 14.203125 19.324219 C 13.5 19.878906 12.761719 20.316406 12 20.632812 C 11.238281 20.316406 10.5 19.878906 9.796875 19.324219 C 7.417969 17.457031 6 14.429688 6 11.230469 L 6 6.195312 C 8.757812 5.785156 10.75 4.816406 12 4.007812 C 13.25 4.816406 15.242188 5.785156 18 6.195312 Z M 18 6.195312"/>
    <path d="M 10 9.996094 C 10 10.546875 10.230469 11.070312 10.625 11.445312 L 9.609375 15.5 C 9.582031 15.621094 9.609375 15.746094 9.683594 15.84375 C 9.757812 15.941406 9.875 15.996094 10 15.996094 L 14 15.996094 C 14.125 15.996094 14.242188 15.941406 14.316406 15.84375 C 14.390625 15.746094 14.417969 15.621094 14.390625 15.5 L 13.375 11.445312 C 13.769531 11.070312 14 10.546875 14 9.996094 C 14 8.894531 13.101562 7.996094 12 7.996094 C 10.898438 7.996094 10 8.894531 10 9.996094 Z M 13.199219 9.996094 C 13.199219 10.378906 13.011719 10.746094 12.695312 10.972656 C 12.558594 11.066406 12.496094 11.234375 12.539062 11.394531 L 13.488281 15.199219 L 10.511719 15.199219 L 11.460938 11.394531 C 11.503906 11.234375 11.441406 11.066406 11.304688 10.972656 C 10.988281 10.746094 10.800781 10.378906 10.800781 9.996094 C 10.800781 9.335938 11.339844 8.796875 12 8.796875 C 12.660156 8.796875 13.199219 9.335938 13.199219 9.996094 Z M 13.199219 9.996094"/>
</svg>

<svg xmlns="http://www.w3.org/2000/svg" width="32" height="32" viewBox="0 0 24 24">
    <path d="M20.8 3.195c-5.84 0-8.456-3.015-8.491-3.058a.415.415 0 0 0-.618 0C11.668.168 9.078 3.19 3.2 3.19a.402.402 0 0 0-.402.403v7.636c0 4.172 1.875 8.141 5.02 10.61 1.269.996 2.636 1.719 4.07 2.144A.528.528 0 0 0 12 24c.04 0 .078-.008.113-.016 1.434-.425 2.801-1.148 4.07-2.144 3.145-2.469 5.02-6.438 5.02-10.61V3.594a.398.398 0 0 0-.402-.399zm-.398 8.035c0 3.93-1.761 7.665-4.715 9.98-1.152.911-2.394 1.571-3.687 1.974-1.293-.403-2.535-1.063-3.688-1.973-2.953-2.316-4.714-6.05-4.714-9.98V3.987C8.496 3.878 11.145 1.79 12 .968c.855.821 3.504 2.91 8.402 3.02zm0 0"/>
    <path d="M11.773 3.195c-1.203.82-3.265 1.875-6.226 2.254a.4.4 0 0 0-.348.399v5.382c0 3.446 1.531 6.707 4.102 8.723a10.113 10.113 0 0 0 2.554 1.485.452.452 0 0 0 .145.027c.05 0 .098-.012.145-.027a10.113 10.113 0 0 0 2.554-1.485c2.57-2.015 4.102-5.277 4.102-8.723V5.848a.4.4 0 0 0-.348-.399c-2.96-.379-5.023-1.433-6.226-2.254a.4.4 0 0 0-.454 0zm6.227 3v5.035c0 3.2-1.418 6.227-3.797 8.094A9.362 9.362 0 0 1 12 20.633a9.362 9.362 0 0 1-2.203-1.309C7.418 17.457 6 14.43 6 11.23V6.195c2.758-.41 4.75-1.379 6-2.187 1.25.808 3.242 1.777 6 2.187zm0 0"/>
    <path d="M10 9.996c0 .55.23 1.074.625 1.45L9.609 15.5a.415.415 0 0 0 .075.344.394.394 0 0 0 .316.152h4a.394.394 0 0 0 .316-.152c.075-.098.102-.223.075-.344l-1.016-4.055c.395-.375.625-.898.625-1.449 0-1.101-.898-2-2-2-1.102 0-2 .899-2 2zm3.2 0c0 .383-.188.75-.505.977a.388.388 0 0 0-.156.422l.95 3.804h-2.977l.949-3.804a.388.388 0 0 0-.156-.422 1.207 1.207 0 0 1-.504-.977c0-.66.539-1.2 1.199-1.2s1.2.54 1.2 1.2zm0 0"/>
</svg>
